symbolic/64x64/apps/simplescreenrecorder.svg

<svg xmlns="http://www.w3.org/2000/svg" width="64" height="64" version="1">
 <path style="opacity:0.2" d="m 16.000323,51.376036 0,1.999984 c 0,1.453989 1.190591,2.62398 2.66798,2.62398 l 26.663794,0 c 1.477989,0 2.66798,-1.169991 2.66798,-2.62398 l 0,-1.999984 c 0,1.453988 -1.189991,2.623979 -2.66798,2.623979 l -26.663794,0 c -1.477389,0 -2.66798,-1.169991 -2.66798,-2.623979 z"/>
 <rect style="fill:#8e8e8e" width="42" height="32" x="-55" y="-48" rx="2.626" ry="2.666" transform="matrix(0,-1,-1,0,0,0)"/>
 <path style="opacity:0.2" d="m 6.0004002,45.500081 0,1.999984 c 0,1.38399 1.1611911,2.499981 2.60158,2.499981 l 46.7956398,0 c 1.439989,0 2.60198,-1.115991 2.60198,-2.499981 l 0,-1.999984 c 0,1.383989 -1.161991,2.499981 -2.60198,2.499981 l -46.7956398,0 c -1.4407889,0 -2.60198,-1.115992 -2.60198,-2.499981 z"/>
 <rect style="fill:#4f4f4f" width="40" height="52" x="-49" y="-58" rx="2.5" ry="2.6" transform="matrix(0,-1,-1,0,0,0)"/>
 <rect style="fill:#dc4f47" width="32" height="44" x="-45" y="-54" rx="0" ry="0" transform="matrix(0,-1,-1,0,0,0)"/>
 <path style="opacity:0.1;fill:#ffffff" d="M 8.6015625 9 C 7.1611736 9 6 10.115011 6 11.5 L 6 12.5 C 6 11.115011 7.1611736 10 8.6015625 10 L 55.398438 10 C 56.838426 10 58 11.115011 58 12.5 L 58 11.5 C 58 10.115011 56.838426 9 55.398438 9 L 8.6015625 9 z"/>
 <path style="opacity:0.2" d="M 20.296,21.0003 H 36.7 c 1.3,0 1.3,1.2857 1.3,1.2857 V 37.715 C 38,39 36.7,39 36.7,39 H 20.3 c 0,0 -1.3,0 -1.3,-1.2857 v -15.428 c 0,0 0,-1.286 1.3,-1.286 z m 25.704,2 v 15 l -8,-8 z"/>
 <path style="fill:#ffffff" d="M 20.296,20.0003 H 36.7 c 1.3,0 1.3,1.2857 1.3,1.2857 V 36.715 C 38,38 36.7,38 36.7,38 H 20.3 c 0,0 -1.3,0 -1.3,-1.2857 v -15.428 c 0,0 0,-1.286 1.3,-1.286 z m 25.704,2 v 15 l -8,-8 z"/>
</svg>

<svg xmlns="http://www.w3.org/2000/svg" width="64" height="64" version="1"><path style="opacity:.2" d="M16 51.376v2C16 54.83 17.19 56 18.668 56h26.664C46.81 56 48 54.83 48 53.376v-2C48 52.83 46.81 54 45.332 54H18.668C17.191 54 16 52.83 16 51.376z"/><rect style="fill:#8e8e8e" width="42" height="32" x="-55" y="-48" rx="2.626" ry="2.666" transform="matrix(0 -1 -1 0 0 0)"/><path style="opacity:.2" d="M6 45.5v2C6 48.884 7.162 50 8.602 50h46.796C56.838 50 58 48.884 58 47.5v-2c0 1.384-1.162 2.5-2.602 2.5H8.602C7.162 48 6 46.884 6 45.5z"/><rect style="fill:#4f4f4f" width="40" height="52" x="-49" y="-58" rx="2.5" ry="2.6" transform="matrix(0 -1 -1 0 0 0)"/><rect style="fill:#dc4f47" width="32" height="44" x="-45" y="-54" rx="0" ry="0" transform="matrix(0 -1 -1 0 0 0)"/><path style="opacity:.1;fill:#fff" d="M8.602 9C7.162 9 6 10.115 6 11.5v1C6 11.115 7.161 10 8.602 10h46.796C56.838 10 58 11.115 58 12.5v-1c0-1.385-1.162-2.5-2.602-2.5H8.602z"/><path style="opacity:.2" d="M20.296 21H36.7c1.3 0 1.3 1.286 1.3 1.286v15.429C38 39 36.7 39 36.7 39H20.3S19 39 19 37.714V22.286S19 21 20.3 21zM46 23v15l-8-8z"/><path style="fill:#fff" d="M20.296 20H36.7c1.3 0 1.3 1.286 1.3 1.286v15.429C38 38 36.7 38 36.7 38H20.3S19 38 19 36.714V21.286S19 20 20.3 20zM46 22v15l-8-8z"/></svg>
